public/assets/Icon/bx_bxs-server.svg

<svg width="25" height="25" viewBox="0 0 25 25" fill="none" xmlns="http://www.w3.org/2000/svg">
<path d="M20.5 3.54932H4.5C3.96957 3.54932 3.46086 3.76003 3.08579 4.1351C2.71071 4.51018 2.5 5.01888 2.5 5.54932V9.54932C2.5 10.0797 2.71071 10.5885 3.08579 10.9635C3.46086 11.3386 3.96957 11.5493 4.5 11.5493H20.5C21.0304 11.5493 21.5391 11.3386 21.9142 10.9635C22.2893 10.5885 22.5 10.0797 22.5 9.54932V5.54932C22.5 5.01888 22.2893 4.51018 21.9142 4.1351C21.5391 3.76003 21.0304 3.54932 20.5 3.54932ZM15.5 7.54932C15.5 8.1016 15.0523 8.54932 14.5 8.54932C13.9477 8.54932 13.5 8.1016 13.5 7.54932C13.5 6.99703 13.9477 6.54932 14.5 6.54932C15.0523 6.54932 15.5 6.99703 15.5 7.54932ZM19.5 7.54932C19.5 8.1016 19.0523 8.54932 18.5 8.54932C17.9477 8.54932 17.5 8.1016 17.5 7.54932C17.5 6.99703 17.9477 6.54932 18.5 6.54932C19.0523 6.54932 19.5 6.99703 19.5 7.54932ZM20.5 13.5493H4.5C3.96957 13.5493 3.46086 13.76 3.08579 14.1351C2.71071 14.5102 2.5 15.0189 2.5 15.5493V19.5493C2.5 20.0798 2.71071 20.5885 3.08579 20.9635C3.46086 21.3386 3.96957 21.5493 4.5 21.5493H20.5C21.0304 21.5493 21.5391 21.3386 21.9142 20.9635C22.2893 20.5885 22.5 20.0798 22.5 19.5493V15.5493C22.5 15.0189 22.2893 14.5102 21.9142 14.1351C21.5391 13.76 21.0304 13.5493 20.5 13.5493ZM15.5 17.5493C15.5 18.1016 15.0523 18.5493 14.5 18.5493C13.9477 18.5493 13.5 18.1016 13.5 17.5493C13.5 16.997 13.9477 16.5493 14.5 16.5493C15.0523 16.5493 15.5 16.997 15.5 17.5493ZM19.5 17.5493C19.5 18.1016 19.0523 18.5493 18.5 18.5493C17.9477 18.5493 17.5 18.1016 17.5 17.5493C17.5 16.997 17.9477 16.5493 18.5 16.5493C19.0523 16.5493 19.5 16.997 19.5 17.5493Z" fill="#F53838"/>
</svg>

<?xml version="1.0" encoding="UTF-8"?>
<svg xmlns="http://www.w3.org/2000/svg" version="1.1" viewBox="0 0 25 25">
  <defs>
    <style>
      .cls-1 {
        fill: #35f;
      }
    </style>
  </defs>
  <!-- Generator: Adobe Illustrator 28.7.1, SVG Export Plug-In . SVG Version: 1.2.0 Build 142)  -->
  <g>
    <g id="Layer_1">
      <path class="cls-1" d="M20.5,3.5H4.5c-.5,0-1,.2-1.4.6-.4.4-.6.9-.6,1.4v4c0,.5.2,1,.6,1.4.4.4.9.6,1.4.6h16c.5,0,1-.2,1.4-.6.4-.4.6-.9.6-1.4v-4c0-.5-.2-1-.6-1.4-.4-.4-.9-.6-1.4-.6ZM15.5,7.5c0,.6-.4,1-1,1s-1-.4-1-1,.4-1,1-1,1,.4,1,1ZM19.5,7.5c0,.6-.4,1-1,1s-1-.4-1-1,.4-1,1-1,1,.4,1,1ZM20.5,13.5H4.5c-.5,0-1,.2-1.4.6-.4.4-.6.9-.6,1.4v4c0,.5.2,1,.6,1.4.4.4.9.6,1.4.6h16c.5,0,1-.2,1.4-.6.4-.4.6-.9.6-1.4v-4c0-.5-.2-1-.6-1.4-.4-.4-.9-.6-1.4-.6ZM15.5,17.5c0,.6-.4,1-1,1s-1-.4-1-1,.4-1,1-1,1,.4,1,1ZM19.5,17.5c0,.6-.4,1-1,1s-1-.4-1-1,.4-1,1-1,1,.4,1,1Z"/>
    </g>
  </g>
</svg>
